src/status/16/smartphone-trusted.svg

<svg xmlns="http://www.w3.org/2000/svg" viewBox="0 0 16 16">
 <path style="fill:#2e3440;opacity:0.4" d="M5.75 0C4.793 0 4 .773 4 1.73L4 14.25C4 15.203 4.793 16 5.75 16l4.5 0C11.207 16 12 15.203 12 14.25L12 1.73C12 .773 11.207 0 10.25 0ZM5 2l6 0 0 11-6 0zm3 12c .414214 0 1 .110786 1 .525C9 14.939214 8.414214 15 8 15 7.585786 15 7 14.939214 7 14.525 7 14.110786 7.585786 14 8 14Z"/>
</svg>

<svg viewBox="0 0 16 16" xmlns="http://www.w3.org/2000/svg">
 <path d="m5.75 0c-0.957 0-1.75 0.773-1.75 1.73v12.52c0 0.953 0.793 1.75 1.75 1.75h4.5c0.957 0 1.75-0.797 1.75-1.75v-12.52c0-0.957-0.793-1.73-1.75-1.73zm-0.75 2h6v11h-6zm3 12c0.41421 0 1 0.11079 1 0.525s-0.58579 0.475-1 0.475-1-0.060786-1-0.475 0.58579-0.525 1-0.525z" fill="#2e3440" opacity=".4"/>
</svg>
